X:1
T:THE CAGE HORNPIPE
T:THE CAGE HORNPIPE
T:James Hill
C:James Hill
L:1/8
M:2/2
K:A
V:1 treble 
V:1
 (uA>B) | c>B(d>c) B>A(c>B) | A>[CE][CE]>[CE] [CE]2 (F>G) | A>(FB>)(A c>)(Bd>)(c | %4
 B>)AG>A [GB]2 (e>d) | c>B(d>c) B>A(c>B) | A>(FB>)(A G>)(FE>D) | C>EA>E F>(dB>)G | ([GB]2 A2) A2 :: %9
 (3(vefg) | ua>Ac>e a>gb>a | ug>fa>g f2 (3(agf) | ue>EG>B e>cf>e | ud>ca>c B2 A>B | %14
 vc>B(d>c) B>A(c>B) | A>(FB>)(A G>)(FE>D) | C>EA>E F(dB>)G | ([FB]2 A2) A2 :| %18

